svg/fluentui-system-icons/ic_fluent_speaker_off_24_filled.svg

<svg width="24" height="24" viewBox="0 0 24 24" fill="none" xmlns="http://www.w3.org/2000/svg">
<path d="M3.28034 2.21968C2.98745 1.92678 2.51257 1.92677 2.21968 2.21966C1.92678 2.51255 1.92677 2.98743 2.21966 3.28032L6.43783 7.49858H4.25C3.00736 7.49858 2 8.50594 2 9.74858V14.2465C2 15.4891 3.00736 16.4965 4.25 16.4965H7.92956C8.11329 16.4965 8.29063 16.5639 8.42793 16.686L12.9194 20.6797C13.7255 21.3965 15 20.8243 15 19.7456V16.0609L20.7194 21.7805C21.0123 22.0734 21.4872 22.0734 21.7801 21.7805C22.073 21.4876 22.073 21.0127 21.7801 20.7198L3.28034 2.21968ZM17.141 13.9593L18.279 15.0973C18.7408 14.1628 19 13.1107 19 12C19 10.7968 18.6958 9.66244 18.1596 8.67183C17.9624 8.30757 17.5072 8.17213 17.143 8.36932C16.7787 8.56651 16.6432 9.02166 16.8404 9.38593C17.2609 10.1627 17.5 11.0523 17.5 12C17.5 12.691 17.3729 13.3512 17.141 13.9593ZM19.3881 16.2064L20.4815 17.2999C21.4437 15.7631 22 13.9457 22 12C22 9.77389 21.2717 7.71569 20.0407 6.05362C19.7941 5.72076 19.3244 5.65079 18.9916 5.89732C18.6587 6.14386 18.5888 6.61355 18.8353 6.9464C19.8815 8.35896 20.5 10.1062 20.5 12C20.5 13.5311 20.0958 14.9663 19.3881 16.2064ZM9.52004 6.33813L15 11.8182V4.25C15 3.17137 13.7255 2.59914 12.9195 3.31582L9.52004 6.33813Z" fill="#212121"/>
</svg>

<svg xmlns="http://www.w3.org/2000/svg" width="24" height="24"><path d="M3.28 2.22a.75.75 0 1 0-1.06 1.06L6.438 7.5H4.25A2.25 2.25 0 0 0 2 9.749v4.497a2.25 2.25 0 0 0 2.25 2.25h3.68a.75.75 0 0 1 .498.19l4.491 3.994c.806.716 2.081.144 2.081-.934V16.06l5.72 5.72a.75.75 0 0 0 1.06-1.061L3.28 2.22Zm13.861 11.74 1.138 1.137A6.974 6.974 0 0 0 19 12a6.973 6.973 0 0 0-.84-3.328.75.75 0 0 0-1.32.714c.42.777.66 1.666.66 2.614 0 .691-.127 1.351-.359 1.96Zm2.247 2.246 1.093 1.094A9.956 9.956 0 0 0 22 12a9.959 9.959 0 0 0-1.96-5.946.75.75 0 0 0-1.205.892A8.459 8.459 0 0 1 20.5 12a8.458 8.458 0 0 1-1.112 4.206ZM9.52 6.338l5.48 5.48V4.25c0-1.079-1.274-1.65-2.08-.934l-3.4 3.022Z"/></svg>
